X:1
T:ARIA
C:Friedrich Gluck
L:1/4
M:3/4
Q:80
K:C
z2C|A2A|(AG)A|_B2G|E2C|F2F|
(FEF)|(G3|G)zG|G2G|(GA_B)|c3|D2G|
F2F|(GFG)|(A3|A)zA|(AG)G|(GA_B)|
c2c|(c_B)A|F2F|(A2G)|(F3|F)z|]

          